icons/circle/48/rawtherapee.svg

<svg xmlns="http://www.w3.org/2000/svg" viewBox="0 0 48 48">
 <defs>
  <linearGradient id="linearGradient3165" gradientUnits="userSpaceOnUse" gradientTransform="matrix(0,-0.97498811,0.97498811,0,0.60028377,47.399713)" x1="1" x2="47">
   <stop style="stop-color:#e4e4e4;stop-opacity:1"/>
   <stop offset="1" style="stop-color:#eee;stop-opacity:1"/>
  </linearGradient>
 </defs>
 <g>
  <path d="m 36.31 5 c 5.859 4.062 9.688 10.831 9.688 18.5 c 0 12.426 -10.07 22.5 -22.5 22.5 c -7.669 0 -14.438 -3.828 -18.5 -9.688 c 1.037 1.822 2.306 3.499 3.781 4.969 c 4.085 3.712 9.514 5.969 15.469 5.969 c 12.703 0 23 -10.298 23 -23 c 0 -5.954 -2.256 -11.384 -5.969 -15.469 c -1.469 -1.475 -3.147 -2.744 -4.969 -3.781 z m 4.969 3.781 c 3.854 4.113 6.219 9.637 6.219 15.719 c 0 12.703 -10.297 23 -23 23 c -6.081 0 -11.606 -2.364 -15.719 -6.219 c 4.16 4.144 9.883 6.719 16.219 6.719 c 12.703 0 23 -10.298 23 -23 c 0 -6.335 -2.575 -12.06 -6.719 -16.219 z" style="opacity:0.05"/>
  <path d="m 41.28 8.781 c 3.712 4.085 5.969 9.514 5.969 15.469 c 0 12.703 -10.297 23 -23 23 c -5.954 0 -11.384 -2.256 -15.469 -5.969 c 4.113 3.854 9.637 6.219 15.719 6.219 c 12.703 0 23 -10.298 23 -23 c 0 -6.081 -2.364 -11.606 -6.219 -15.719 z" style="opacity:0.1"/>
  <path d="m 31.25 2.375 c 8.615 3.154 14.75 11.417 14.75 21.13 c 0 12.426 -10.07 22.5 -22.5 22.5 c -9.708 0 -17.971 -6.135 -21.12 -14.75 a 23 23 0 0 0 44.875 -7 a 23 23 0 0 0 -16 -21.875 z" style="opacity:0.2"/>
 </g>
 <path d="m 24 1.575 c 12.385 0 22.425 10.04 22.425 22.425 0 12.385 -10.04 22.425 -22.425 22.425 -12.385 0 -22.425 -10.04 -22.425 -22.425 0 -12.385 10.04 -22.425 22.425 -22.425 z" style="fill:url(#linearGradient3165);fill-opacity:1"/>
 <path d="m 15.937 32.845 c -1.82 -2.099 -2.938 -4.835 -2.938 -7.844 0 -1.388 0.226 -2.701 0.656 -3.938 0.215 -0.618 0.472 -1.215 0.781 -1.781 0.101 -0.186 0.202 -0.383 0.313 -0.563 1.214 -1.699 2.822 -3.3 4.376 -4.187 0.282 -0.157 0.58 -0.303 0.875 -0.438 0.582 -0.266 1.185 -0.484 1.813 -0.656 c 1.107 -0.233 2.233 -0.433 3.187 -0.438 c 3.102 0 5.904 1.178 8.03 3.094 c -11.188 -13.43 -30.419 5.01 -17.09 16.751" style="fill:#000;opacity:0.1;fill-opacity:1;stroke:none;fill-rule:nonzero"/>
 <path d="m 45.25 15.219 c 0.23 0.556 0.438 1.111 0.625 1.688 c -0.185 -0.57 -0.397 -1.137 -0.625 -1.688 z m 0.625 1.688 l -10.438 3.375 c -0.125 -0.389 -0.275 -0.755 -0.438 -1.125 l -0.031 0 c 0.652 1.48 1.031 3.117 1.031 4.844 c 0 4.219 -2.16 7.929 -5.438 10.06 l 5.75 9.344 c 6.426 -4.079 10.688 -11.231 10.688 -19.406 c 0 -2.483 -0.398 -4.856 -1.125 -7.094 z" style="fill:#f3f284;fill-opacity:1;stroke:none;fill-rule:nonzero"/>
 <path d="m 2.188 16.781 c -1.458 20.813 -0.729 10.406 0 0 z m -0.063 0.125 c -0.726 2.232 -1.125 4.618 -1.125 7.094 c 0 7.643 3.734 14.411 9.469 18.594 l 6.469 -8.875 c -2.996 -2.178 -4.938 -5.716 -4.938 -9.719 c 0 -1.293 0.187 -2.553 0.563 -3.719 z" style="fill:#9ab9dd;fill-opacity:1;stroke:none;fill-rule:nonzero"/>
 <path d="m 16.938 33.719 l -6.469 8.875 c 3.798 2.77 8.47 4.406 13.531 4.406 c 5.061 0 9.733 -1.636 13.531 -4.406 l -6.469 -8.875 c -1.977 1.438 -4.421 2.281 -7.06 2.281 c -2.645 0 -5.089 -0.844 -7.06 -2.281 z" style="fill:#9add9c;fill-opacity:1;stroke:none;fill-rule:nonzero"/>
 <path d="m 24 1 c -10.227 0 -18.885 6.676 -21.875 15.906 l 10.438 3.375 c 1.555 -4.824 6.081 -8.281 11.438 -8.281 l 0 -11 z" style="fill:#ed8e68;fill-opacity:1;stroke:none;fill-rule:nonzero"/>
 <path d="m 23.969 1 l 0.031 11 c 5.355 0 9.886 3.453 11.438 8.281 l 10.438 -3.375 c -2.99 -9.231 -11.648 -15.906 -21.875 -15.906 c -0.01 0 -0.021 0 -0.031 0 z" style="fill:#edb968;fill-opacity:1;stroke:none;fill-rule:nonzero"/>
 <g>
  <path d="m 40.03 7.531 c 3.712 4.084 5.969 9.514 5.969 15.469 0 12.703 -10.297 23 -23 23 c -5.954 0 -11.384 -2.256 -15.469 -5.969 4.178 4.291 10.01 6.969 16.469 6.969 c 12.703 0 23 -10.298 23 -23 0 -6.462 -2.677 -12.291 -6.969 -16.469 z" style="opacity:0.1"/>
 </g>
</svg>

<svg xmlns="http://www.w3.org/2000/svg" viewBox="0 0 48 48">
  <defs>
    <linearGradient id="a" gradientUnits="userSpaceOnUse" gradientTransform="rotate(-90 24 23.4) scale(.97499)" x1="1" x2="47">
      <stop stop-color="#e4e4e4"/>
      <stop offset="1" stop-color="#eee"/>
    </linearGradient>
  </defs>
  <path d="M36.31 5c5.859 4.062 9.688 10.831 9.688 18.5 0 12.426-10.07 22.5-22.5 22.5-7.669 0-14.438-3.828-18.5-9.688a23.24 23.24 0 0 0 3.781 4.969 22.923 22.923 0 0 0 15.469 5.969c12.703 0 23-10.298 23-23a22.92 22.92 0 0 0-5.969-15.469A23.216 23.216 0 0 0 36.31 5zm4.969 3.781A22.911 22.911 0 0 1 47.498 24.5c0 12.703-10.297 23-23 23a22.909 22.909 0 0 1-15.719-6.219C12.939 45.425 18.662 48 24.998 48c12.703 0 23-10.298 23-23 0-6.335-2.575-12.06-6.719-16.219z" opacity=".05"/>
  <path d="M41.28 8.781a22.923 22.923 0 0 1 5.969 15.469c0 12.703-10.297 23-23 23A22.92 22.92 0 0 1 8.78 41.281 22.911 22.911 0 0 0 24.499 47.5c12.703 0 23-10.298 23-23A22.909 22.909 0 0 0 41.28 8.781z" opacity=".1"/>
  <path d="M31.25 2.375C39.865 5.529 46 13.792 46 23.505c0 12.426-10.07 22.5-22.5 22.5-9.708 0-17.971-6.135-21.12-14.75a23 23 0 0 0 44.875-7 23 23 0 0 0-16-21.875z" opacity=".2"/>
  <path d="M24 1.575c12.385 0 22.425 10.04 22.425 22.425 0 12.385-10.04 22.425-22.425 22.425-12.385 0-22.425-10.04-22.425-22.425C1.575 11.615 11.615 1.575 24 1.575z" fill="url(#a)"/>
  <path d="M15.937 32.845a11.933 11.933 0 0 1-2.938-7.844c0-1.388.226-2.701.656-3.938.215-.618.472-1.215.781-1.781.101-.186.202-.383.313-.563 1.214-1.699 2.822-3.3 4.376-4.187a12.525 12.525 0 0 1 2.688-1.094c1.107-.233 2.233-.433 3.187-.438 3.102 0 5.904 1.178 8.03 3.094-11.188-13.43-30.419 5.01-17.09 16.751" opacity=".1"/>
  <path d="M45.25 15.219zm.625 1.688l-10.438 3.375a11.492 11.492 0 0 0-.438-1.125h-.031a11.99 11.99 0 0 1-4.407 14.904l5.75 9.344c6.426-4.079 10.688-11.231 10.688-19.406 0-2.483-.398-4.856-1.125-7.094z" fill="#f3f284"/>
  <path d="M2.188 16.781c-1.458 20.813-.729 10.406 0 0zm-.063.125A22.907 22.907 0 0 0 1 24c0 7.643 3.734 14.411 9.469 18.594l6.469-8.875A11.978 11.978 0 0 1 12 24c0-1.293.187-2.553.563-3.719z" fill="#9ab9dd"/>
  <path d="M16.938 33.719l-6.469 8.875A22.875 22.875 0 0 0 24 47c5.061 0 9.733-1.636 13.531-4.406l-6.469-8.875A11.964 11.964 0 0 1 24.002 36c-2.645 0-5.089-.844-7.06-2.281z" fill="#9add9c"/>
  <path d="M24 1C13.773 1 5.115 7.676 2.125 16.906l10.438 3.375A11.98 11.98 0 0 1 24.001 12V1z" fill="#ed8e68"/>
  <path d="M23.969 1L24 12c5.355 0 9.886 3.453 11.438 8.281l10.438-3.375C42.886 7.675 34.228 1 24.001 1h-.031z" fill="#edb968"/>
  <g>
    <path d="M40.03 7.531A22.922 22.922 0 0 1 45.999 23c0 12.703-10.297 23-23 23A22.92 22.92 0 0 1 7.53 40.031C11.708 44.322 17.54 47 23.999 47c12.703 0 23-10.298 23-23 0-6.462-2.677-12.291-6.969-16.469z" opacity=".1"/>
  </g>
</svg>
